X:1
T:Title
%%score { 1 | 2 }
L:1/8
M:4/4
K:Ab
V:1 treble nm="Grand Piano"
V:2 bass 
V:1
 z4 z2[Q:1/4=100] [A,C][B,D] | [CE][CA][CA][DB] [Ec]2 [CA][EA] | BAAF [CE]2 [A,C][B,D] | %3
 [CE][CA][CA][DB] [Ec][Ee][Ed][Ec] | B6 cd | eeAB c2 [Bd][Ac] | [FB][FA][EG][DF] [CE]2 [A,C][B,D] | %7
 [CE][CA][EA][FB] cA B>B |[M:3/4] [A,CA]6 |[M:1/4] cd |[M:4/4] ecEE BADD | %11
 [DFB][DFA] [DFA]>[A,DF][K:bass] [A,CE]2 [E,A,C][E,B,D] |[M:2/4][K:treble] [CE][CA] [CA][DB] | %13
 ce dc |[M:3/4] B6 |[M:1/4] cd |[M:4/4] ecEE BADD | %17
 [DFB][DFA] [DFA]>[A,DF][K:bass] [A,CE]2 [E,A,C][E,B,D] | [CE][CA][EA][FB] cA B>B |[M:3/4] [CA]6 |] %20
V:2
 z4 z2 [A,,E,][A,,E,] | [A,,A,][A,,A,][A,,A,][A,,A,] [A,,A,]2 [A,,A,][C,A,] | %2
 [D,F,D][D,F,D][D,F,D][D,A,D] [A,,A,]2 [A,,E,][A,,E,] | %3
 [A,,A,][A,,A,][A,,A,][A,,A,] [A,,A,][C,A,][B,,G,][A,,A,] | [E,G,E]6[K:treble] [A,E][A,B,E] | %5
 [A,CE][A,CE][A,CE][A,DE] [A,EA]2[K:bass] [G,E][A,E] | %6
 [D,D][D,D][D,A,][D,A,] [A,,A,]2 [A,,E,][A,,E,] | %7
 [A,,A,][A,,A,][A,,A,][D,A,] [E,A,E][E,A,C] [E,G,D]>[E,G,D] |[M:3/4] A,,6 |[M:1/4][K:treble] EE | %10
[M:4/4] AAA,A, FF[K:bass]D,D, | D,D, D,>D, A,,2 A,,A,, |[M:2/4] [A,,A,][A,,A,] [A,,A,][A,,A,] | %13
 [A,E][A,CE] [G,B,E][A,E] |[M:3/4] [E,G,E]6 |[M:1/4][K:treble] EE |[M:4/4] AAA,A, FF[K:bass]D,D, | %17
 D,D, D,>D, A,,2 A,,A,, | [A,,A,][A,,A,][C,A,][E,A,] [E,A,E][E,A,C] [E,G,D]>[E,G,D] | %19
[M:3/4] [A,,A,]6 |] %20

